app/javascript/svgs/PDF-Icon-red.svg

<svg viewBox="0 0 172 140" xmlns="http://www.w3.org/2000/svg" fill-rule="evenodd" clip-rule="evenodd" stroke-linejoin="round" stroke-miterlimit="2"><path d="M93.59 103.91H67.31c-4.762 0-8.68-3.918-8.68-8.68V44.15c0-4.762 3.918-8.68 8.68-8.68h36.89c4.762 0 8.68 3.918 8.68 8.68v42.12l-19.29 17.64z" fill="none" fill-rule="nonzero" stroke="red" stroke-width="2"/><path d="M94.14 73.83s2.45 5.11 7.49 4.46c5.04-.65 3.31-6.55-.94-5.83-4.25.72-21.51 4.62-30.94 10.84-6.9 4.56.15 9.48 2.56 5s10-18.44 13.24-32.54c3.24-14.1-5.29-11.51-4.36-5.47.44 2.85 6.69 17.8 12.95 23.54zm-2.06 30.08V92.06c0-3.176 2.614-5.79 5.79-5.79h15" fill="none" fill-rule="nonzero" stroke="red" stroke-width="2"/></svg>

<?xml version="1.0" encoding="UTF-8" standalone="no"?>
<!DOCTYPE svg PUBLIC "-//W3C//DTD SVG 1.1//EN" "http://www.w3.org/Graphics/SVG/1.1/DTD/svg11.dtd">
<svg width="100%" height="100%" viewBox="0 0 172 140" version="1.1" xmlns="http://www.w3.org/2000/svg" xmlns:xlink="http://www.w3.org/1999/xlink" xml:space="preserve" xmlns:serif="http://www.serif.com/" style="fill-rule:evenodd;clip-rule:evenodd;stroke-linejoin:round;stroke-miterlimit:2;">
    <path d="M93.59,103.91L67.31,103.91C62.548,103.91 58.63,99.992 58.63,95.23L58.63,44.15C58.63,39.388 62.548,35.47 67.31,35.47L104.2,35.47C108.962,35.47 112.88,39.388 112.88,44.15L112.88,86.27L93.59,103.91Z" style="fill:none;fill-rule:nonzero;stroke:rgb(255,0,0);stroke-width:2px;"/>
    <path d="M94.14,73.83C94.14,73.83 96.59,78.94 101.63,78.29C106.67,77.64 104.94,71.74 100.69,72.46C96.44,73.18 79.18,77.08 69.75,83.3C62.85,87.86 69.9,92.78 72.31,88.3C74.72,83.82 82.31,69.86 85.55,55.76C88.79,41.66 80.26,44.25 81.19,50.29C81.63,53.14 87.88,68.09 94.14,73.83Z" style="fill:none;fill-rule:nonzero;stroke:rgb(255,0,0);stroke-width:2px;"/>
    <path d="M92.08,103.91L92.08,92.06C92.08,88.884 94.694,86.27 97.87,86.27L112.87,86.27" style="fill:none;fill-rule:nonzero;stroke:rgb(255,0,0);stroke-width:2px;"/>
</svg>
